X: 35838
T: Salty Boys
R: reel
M: 4/4
K: Edorian
D EFGA|:Bdef edBd|A3(A A2)GA|B2dB dBGF|E3D EFGA|
Bdef edBd|A3(A A2)GA|B2dB dBGF|1 E3D EFGA:|2 E3(E E4)||
|:efgf edBA|B3A Bcd2|e3A Bcd2|efed BAGB|
A3(A A2)G2|A3(A A2)G2|A_BAG EDB,D|E2ED EFGA|
BdBA GED2|E4 e4:|

